svgs/light/diagram-lean-canvas.svg

<svg xmlns="http://www.w3.org/2000/svg" viewBox="0 0 640 512"><!--! Font Awesome Pro 6.4.2 by @fontawesome - https://fontawesome.com License - https://fontawesome.com/license (Commercial License) Copyright 2023 Fonticons, Inc. --><path d="M512 64V320h96V96c0-17.7-14.3-32-32-32H512zm-32 0H384V192h96V64zM352 64H288V320h64V64zm-96 0H160V192h96V64zM128 64H64C46.3 64 32 78.3 32 96V320h96V64zM32 352v64c0 17.7 14.3 32 32 32H304V352H32zm304 96H576c17.7 0 32-14.3 32-32V352H336v96zM0 96C0 60.7 28.7 32 64 32H576c35.3 0 64 28.7 64 64V416c0 35.3-28.7 64-64 64H64c-35.3 0-64-28.7-64-64V96zM256 320V224H160v96h96zm224-96H384v96h96V224z"/></svg>

<svg xmlns="http://www.w3.org/2000/svg" viewBox="0 0 640 512"><!--! Font Awesome Pro 6.1.1 by @fontawesome - https://fontawesome.com License - https://fontawesome.com/license (Commercial License) Copyright 2022 Fonticons, Inc. --><path d="M0 96C0 60.65 28.65 32 64 32H576C611.3 32 640 60.65 640 96V416C640 451.3 611.3 480 576 480H64C28.65 480 0 451.3 0 416V96zM512 320H608V96C608 78.33 593.7 64 576 64H512V320zM480 64H384V192H480V64zM352 64H288V320H352V64zM256 64H160V192H256V64zM128 64H64C46.33 64 32 78.33 32 96V320H128V64zM32 352V416C32 433.7 46.33 448 64 448H304V352H32zM336 448H576C593.7 448 608 433.7 608 416V352H336V448zM256 224H160V320H256V224zM384 224V320H480V224H384z"/></svg>
